src/assets/images/logo-365werk.svg

<svg enable-background="new 0 0 171 33.8" viewBox="0 0 171 33.8" xmlns="http://www.w3.org/2000/svg"><path d="m106.6 27h14.2v-2.1h-13.3c-3.7 0-4.6-.2-5.4-1.2-.4-.5-.6-1.1-.6-1.9 0-2.2 1.2-3.3 3.8-3.6 1-.1 2-.1 3-.1h12.5v-2.1h-12.5c-3.4 0-5-.3-5.9-1.3-.6-.5-.8-1.4-.8-2.4 0-1.8 1-2.8 2.8-3 .7-.1 1.8-.1 3.1-.1h13.3v-2.2h-14.2c-2.9 0-4.2.3-5.3 1.2-1.2.9-1.9 2.4-1.9 4.2 0 2 .7 3.5 2.2 4.7-1.5 1.2-2.2 2.7-2.2 4.7 0 1.8.7 3.4 1.9 4.2 1.3.7 2.5 1 5.3 1zm38.9-14.7c0-1.8-.7-3.3-1.9-4.2-1.1-.9-2.4-1.2-5.3-1.2h-14.2v2.1h13.3c1.4 0 2.4 0 3.1.1 1.8.2 2.8 1.2 2.8 3 0 1-.3 1.9-.8 2.4-1 .9-2.6 1.3-5.9 1.3h-1.8-10.9v11.4h2.1v-9.2h10.7c1.2 0 2.1 0 3 .1 2.6.2 3.8 1.4 3.8 3.6v5.3h2.1v-5.6c0-2-.8-3.3-2.2-4.4 1.3-1.2 2.1-2.7 2.1-4.7zm25 0v-5.2h-2.1v5.2c0 1-.3 1.9-.8 2.4-1 .9-2.6 1.3-5.9 1.3h-10.5v-9h-2.2v20.3h2.1v-9.3h10.5c1.2 0 2.1 0 3 .1 2.6.2 3.8 1.4 3.8 3.6v5.3h2.1v-5.6c0-2-.8-3.3-2.2-4.4 1.5-1.2 2.2-2.7 2.2-4.7z" fill="#fd8e16"/><path d="m88.9 32.5c8.2 0 14.8-6.4 14.8-14.3s-6.6-14.4-14.8-14.4-14.8 6.4-14.8 14.3 6.7 14.4 14.8 14.4z" opacity=".12"/><path d="m86.9 30.5c8.2 0 14.8-6.4 14.8-14.3s-6.6-14.4-14.8-14.4-14.7 6.4-14.7 14.4 6.6 14.3 14.7 14.3z" fill="#fd8e16"/><path d="m96.9 20.3v-13.3h-2.1v12.5c0 3.5-.2 4.3-1.2 5.1-.4.4-1.1.5-1.9.5-2.2 0-3.3-1.2-3.6-3.6-.1-1-.1-1.9-.1-2.8v-11.7h-2.1v11.7c0 3.1-.3 4.7-1.3 5.6-.5.5-1.4.8-2.4.8-1.8 0-2.8-.9-3-2.6-.1-.7-.1-1.7-.1-2.9l.1-19h-2.2v19.8c0 2.7.3 3.9 1.1 5 .9 1.1 2.4 1.8 4.1 1.8 2 0 3.5-.7 4.7-2.1 1.1 1.4 2.7 2.1 4.7 2.1 1.8 0 3.4-.7 4.1-1.8.9-1.3 1.2-2.4 1.2-5.1z" fill="#f7f7f7"/><path d="m15.4 29.1h-14.4v-2.1h13.5c3.8 0 4.6-.2 5.5-1.2.4-.5.6-1.1.6-1.9 0-2.2-1.2-3.4-3.9-3.6-1-.1-2-.1-3-.1h-12.7v-2.1h12.6c3.4 0 5-.3 6-1.3.6-.5.9-1.4.9-2.5 0-1.8-1-2.8-2.8-3-.7-.1-1.8-.1-3.2-.1h-13.5v-2.4h14.4c2.9 0 4.2.3 5.4 1.2s1.9 2.4 1.9 4.2c0 2-.7 3.5-2.3 4.8 1.5 1.2 2.3 2.8 2.3 4.7 0 1.8-.7 3.4-1.9 4.2-1.3.9-2.5 1.2-5.4 1.2zm31.7-5.8c0-1.8-.7-3.3-1.9-4.2s-2.4-1.2-5.4-1.2h-12.1v-3.8c0-1.8 1-2.8 2.8-3 .7-.1 1.8-.1 3.2-.1h10.9v-2.2h-11.8c-2.9 0-4.2.3-5.4 1.2s-1.9 2.4-1.9 4.2v3.7 5.8c0 1.8.7 3.4 1.9 4.2s2.4 1.1 5.1 1.2h7.4c2.9 0 4.1-.3 5.4-1.2 1.2-.8 1.9-2.4 1.9-4.2 0-.1 0-.3-.1-.4zm-2.1.5c0 .8-.2 1.5-.6 1.9-.8 1-1.7 1.2-5.5 1.2h-6.5c-2.8 0-3.5-.3-4.3-1.2-.4-.5-.6-1.1-.6-1.9v-3.7h11.3c1.4 0 2.4 0 3.2.1 1.6.2 2.5 1 2.8 2.3.2.4.2.9.2 1.3zm27-.5c0-1.8-.7-3.3-1.9-4.2s-2.9-1.2-5.8-1.2h-11.6v-6.9h16.7v-2.2h-19v11.2h13.5c1.4 0 2.4 0 3.2.1 1.6.2 2.5 1 2.8 2.3.1.4.1.9.1 1.3 0 .8-.2 1.5-.6 1.9-.8 1-1.7 1.2-5.4 1.2h-13.7v2.2h14.4c2.9 0 4.1-.3 5.4-1.2 1.2-.8 1.9-2.4 1.9-4.2 0 0 0-.2 0-.3z" fill="#efefef"/><path d="m14.4 27.1h-14.4v-2.1h13.5c3.8 0 4.6-.2 5.5-1.2.4-.5.6-1.1.6-1.9 0-2.2-1.2-3.4-3.9-3.6-1-.1-2-.1-3-.1h-12.7v-2.1h12.6c3.4 0 5-.3 6-1.3.6-.5.9-1.4.9-2.5 0-1.8-1-2.8-2.8-3-.8-.2-1.8-.3-3.2-.3h-13.5v-2.2h14.4c2.9 0 4.2.3 5.4 1.2s1.9 2.4 1.9 4.2c0 2-.7 3.5-2.3 4.8 1.5 1.2 2.3 2.8 2.3 4.7 0 1.8-.7 3.4-1.9 4.2-1.3.9-2.5 1.2-5.4 1.2zm31.7-5.8c0-1.8-.7-3.3-1.9-4.2s-2.4-1.2-5.4-1.2h-12.1v-3.8c0-1.8 1-2.8 2.8-3 .7 0 1.8-.1 3.2-.1h10.9v-2.2h-11.8c-2.9 0-4.2.3-5.4 1.2s-1.9 2.4-1.9 4.2v3.7 5.8c0 1.8.7 3.4 1.9 4.2s2.4 1.1 5.1 1.2h7.4c2.9 0 4.1-.3 5.4-1.2 1.2-.8 1.9-2.4 1.9-4.2 0-.1 0-.3-.1-.4zm-2.1.5c0 .8-.2 1.5-.6 1.9-.8 1-1.7 1.2-5.5 1.2h-6.5c-2.8 0-3.5-.3-4.3-1.2-.4-.5-.6-1.1-.6-1.9v-3.7h11.3c1.4 0 2.4 0 3.2.1 1.6.2 2.5 1 2.8 2.3.2.4.2.9.2 1.3zm27-.5c0-1.8-.7-3.3-1.9-4.2s-2.9-1.2-5.8-1.2h-11.6v-6.9h16.7v-2.2h-19v11.2h13.5c1.4 0 2.4 0 3.2.1 1.6.2 2.5 1 2.8 2.3.1.4.1.9.1 1.3 0 .8-.2 1.5-.6 1.9-.8 1-1.7 1.2-5.5 1.2h-13.6v2.2h14.4c2.9 0 4.1-.3 5.4-1.2 1.2-.8 1.9-2.4 1.9-4.2 0 0 0-.2 0-.3z" fill="#c9c9c9"/></svg>

<?xml version="1.0" encoding="utf-8"?>
<!-- Generator: Adobe Illustrator 21.0.0, SVG Export Plug-In . SVG Version: 6.00 Build 0)  -->
<svg version="1.1" id="Layer_1" xmlns="http://www.w3.org/2000/svg" xmlns:xlink="http://www.w3.org/1999/xlink" x="0px" y="0px"
	 viewBox="0 0 171 33.8" style="enable-background:new 0 0 171 33.8;" xml:space="preserve">
<style type="text/css">
	.st0{fill:#FD8E16;}
	.st1{opacity:0.12;enable-background:new    ;}
	.st2{fill:#F7F7F7;}
	.st3{fill:#EFEFEF;enable-background:new    ;}
	.st4{fill:#C9C9C9;}
</style>
<path class="st0" d="M106.6,27h14.2v-2.1h-13.3c-3.7,0-4.6-0.2-5.4-1.2c-0.4-0.5-0.6-1.1-0.6-1.9c0-2.2,1.2-3.3,3.8-3.6
	c1-0.1,2-0.1,3-0.1h12.5V16h-12.5c-3.4,0-5-0.3-5.9-1.3c-0.6-0.5-0.8-1.4-0.8-2.4c0-1.8,1-2.8,2.8-3c0.7-0.1,1.8-0.1,3.1-0.1h13.3V7
	h-14.2c-2.9,0-4.2,0.3-5.3,1.2c-1.2,0.9-1.9,2.4-1.9,4.2c0,2,0.7,3.5,2.2,4.7c-1.5,1.2-2.2,2.7-2.2,4.7c0,1.8,0.7,3.4,1.9,4.2
	C102.6,26.7,103.8,27,106.6,27L106.6,27z M145.5,12.3c0-1.8-0.7-3.3-1.9-4.2c-1.1-0.9-2.4-1.2-5.3-1.2h-14.2V9h13.3
	c1.4,0,2.4,0,3.1,0.1c1.8,0.2,2.8,1.2,2.8,3c0,1-0.3,1.9-0.8,2.4c-1,0.9-2.6,1.3-5.9,1.3h-1.8h-10.9v11.4h2.1V18h10.7
	c1.2,0,2.1,0,3,0.1c2.6,0.2,3.8,1.4,3.8,3.6V27h2.1v-5.6c0-2-0.8-3.3-2.2-4.4C144.7,15.8,145.5,14.3,145.5,12.3L145.5,12.3z
	 M170.5,12.3V7.1h-2.1v5.2c0,1-0.3,1.9-0.8,2.4c-1,0.9-2.6,1.3-5.9,1.3h-10.5V7H149v20.3h2.1V18h10.5c1.2,0,2.1,0,3,0.1
	c2.6,0.2,3.8,1.4,3.8,3.6V27h2.1v-5.6c0-2-0.8-3.3-2.2-4.4C169.8,15.8,170.5,14.3,170.5,12.3L170.5,12.3z"/>
<path class="st1" d="M88.9,32.5c8.2,0,14.8-6.4,14.8-14.3S97.1,3.8,88.9,3.8s-14.8,6.4-14.8,14.3S80.8,32.5,88.9,32.5z"/>
<path class="st0" d="M86.9,30.5c8.2,0,14.8-6.4,14.8-14.3S95.1,1.8,86.9,1.8S72.2,8.2,72.2,16.2S78.8,30.5,86.9,30.5z"/>
<path class="st2" d="M96.9,20.3V7h-2.1v12.5c0,3.5-0.2,4.3-1.2,5.1c-0.4,0.4-1.1,0.5-1.9,0.5c-2.2,0-3.3-1.2-3.6-3.6
	c-0.1-1-0.1-1.9-0.1-2.8V7h-2.1v11.7c0,3.1-0.3,4.7-1.3,5.6c-0.5,0.5-1.4,0.8-2.4,0.8c-1.8,0-2.8-0.9-3-2.6
	c-0.1-0.7-0.1-1.7-0.1-2.9l0.1-19H77v19.8c0,2.7,0.3,3.9,1.1,5c0.9,1.1,2.4,1.8,4.1,1.8c2,0,3.5-0.7,4.7-2.1
	c1.1,1.4,2.7,2.1,4.7,2.1c1.8,0,3.4-0.7,4.1-1.8C96.6,24.1,96.9,23,96.9,20.3z"/>
<path class="st3" d="M15.4,29.1H1V27h13.5c3.8,0,4.6-0.2,5.5-1.2c0.4-0.5,0.6-1.1,0.6-1.9c0-2.2-1.2-3.4-3.9-3.6c-1-0.1-2-0.1-3-0.1
	H1v-2.1h12.6c3.4,0,5-0.3,6-1.3c0.6-0.5,0.9-1.4,0.9-2.5c0-1.8-1-2.8-2.8-3c-0.7-0.1-1.8-0.1-3.2-0.1H1V8.8h14.4
	c2.9,0,4.2,0.3,5.4,1.2s1.9,2.4,1.9,4.2c0,2-0.7,3.5-2.3,4.8c1.5,1.2,2.3,2.8,2.3,4.7c0,1.8-0.7,3.4-1.9,4.2
	C19.5,28.8,18.3,29.1,15.4,29.1L15.4,29.1z M47.1,23.3L47.1,23.3c0-1.8-0.7-3.3-1.9-4.2c-1.2-0.9-2.4-1.2-5.4-1.2H27.7v-3.8
	c0-1.8,1-2.8,2.8-3c0.7-0.1,1.8-0.1,3.2-0.1h10.9V8.8H32.8c-2.9,0-4.2,0.3-5.4,1.2c-1.2,0.9-1.9,2.4-1.9,4.2v3.7v5.8l0,0l0,0
	c0,1.8,0.7,3.4,1.9,4.2c1.2,0.8,2.4,1.1,5.1,1.2l0,0h7.4c2.9,0,4.1-0.3,5.4-1.2c1.2-0.8,1.9-2.4,1.9-4.2
	C47.2,23.6,47.2,23.4,47.1,23.3z M45,23.8c0,0.8-0.2,1.5-0.6,1.9c-0.8,1-1.7,1.2-5.5,1.2h-6.5c-2.8,0-3.5-0.3-4.3-1.2
	c-0.4-0.5-0.6-1.1-0.6-1.9v-3.7h11.3c1.4,0,2.4,0,3.2,0.1c1.6,0.2,2.5,1,2.8,2.3C45,22.9,45,23.4,45,23.8z M72,23.3L72,23.3
	c0-1.8-0.7-3.3-1.9-4.2c-1.2-0.9-2.9-1.2-5.8-1.2H52.7V11h16.7V8.8h-19V20h13.5c1.4,0,2.4,0,3.2,0.1c1.6,0.2,2.5,1,2.8,2.3
	c0.1,0.4,0.1,0.9,0.1,1.3c0,0.8-0.2,1.5-0.6,1.9c-0.8,1-1.7,1.2-5.4,1.2H50.3V29h14.4c2.9,0,4.1-0.3,5.4-1.2
	c1.2-0.8,1.9-2.4,1.9-4.2C72,23.6,72,23.4,72,23.3z"/>
<path class="st4" d="M14.4,27.1H0V25h13.5c3.8,0,4.6-0.2,5.5-1.2c0.4-0.5,0.6-1.1,0.6-1.9c0-2.2-1.2-3.4-3.9-3.6c-1-0.1-2-0.1-3-0.1
	H0v-2.1h12.6c3.4,0,5-0.3,6-1.3c0.6-0.5,0.9-1.4,0.9-2.5c0-1.8-1-2.8-2.8-3C15.9,9.1,14.9,9,13.5,9H0V6.8h14.4
	c2.9,0,4.2,0.3,5.4,1.2s1.9,2.4,1.9,4.2c0,2-0.7,3.5-2.3,4.8c1.5,1.2,2.3,2.8,2.3,4.7c0,1.8-0.7,3.4-1.9,4.2
	C18.5,26.8,17.3,27.1,14.4,27.1L14.4,27.1z M46.1,21.3L46.1,21.3c0-1.8-0.7-3.3-1.9-4.2c-1.2-0.9-2.4-1.2-5.4-1.2H26.7v-3.8
	c0-1.8,1-2.8,2.8-3c0.7,0,1.8-0.1,3.2-0.1h10.9V6.8H31.8c-2.9,0-4.2,0.3-5.4,1.2c-1.2,0.9-1.9,2.4-1.9,4.2v3.7v5.8l0,0l0,0
	c0,1.8,0.7,3.4,1.9,4.2c1.2,0.8,2.4,1.1,5.1,1.2l0,0h7.4c2.9,0,4.1-0.3,5.4-1.2c1.2-0.8,1.9-2.4,1.9-4.2
	C46.2,21.6,46.2,21.4,46.1,21.3z M44,21.8c0,0.8-0.2,1.5-0.6,1.9c-0.8,1-1.7,1.2-5.5,1.2h-6.5c-2.8,0-3.5-0.3-4.3-1.2
	c-0.4-0.5-0.6-1.1-0.6-1.9v-3.7h11.3c1.4,0,2.4,0,3.2,0.1c1.6,0.2,2.5,1,2.8,2.3C44,20.9,44,21.4,44,21.8z M71,21.3L71,21.3
	c0-1.8-0.7-3.3-1.9-4.2c-1.2-0.9-2.9-1.2-5.8-1.2H51.7V9h16.7V6.8h-19V18h13.5c1.4,0,2.4,0,3.2,0.1c1.6,0.2,2.5,1,2.8,2.3
	c0.1,0.4,0.1,0.9,0.1,1.3c0,0.8-0.2,1.5-0.6,1.9c-0.8,1-1.7,1.2-5.5,1.2H49.3V27h14.4c2.9,0,4.1-0.3,5.4-1.2
	c1.2-0.8,1.9-2.4,1.9-4.2C71,21.6,71,21.4,71,21.3z"/>
</svg>
